packages/design-system/site/assets/images/navigation/img-tabs-scoped.svg

<?xml version="1.0" encoding="UTF-8" standalone="no"?>
<svg width="287px" height="275px" viewBox="0 0 287 275" version="1.1" xmlns="http://www.w3.org/2000/svg" xmlns:xlink="http://www.w3.org/1999/xlink" xmlns:sketch="http://www.bohemiancoding.com/sketch/ns">
    <!-- Generator: Sketch 3.3.3 (12081) - http://www.bohemiancoding.com/sketch -->
    <title>record copy + Rectangle 564 Copy 2</title>
    <desc>Created with Sketch.</desc>
    <defs></defs>
    <g id="Page-1" stroke="none" stroke-width="1" fill="none" fill-rule="evenodd" sketch:type="MSPage">
        <g id="navigation" sketch:type="MSArtboardGroup" transform="translate(-886.000000, -1379.000000)">
            <g id="record-copy-+-Rectangle-564-Copy-2" sketch:type="MSLayerGroup" transform="translate(886.000000, 1379.000000)">
                <g id="record-copy" sketch:type="MSShapeGroup">
                    <rect id="bkgd" stroke="#E1E6EF" fill="#FFFFFF" x="0" y="11.6502034" width="286.747837" height="262.820968"></rect>
                    <rect id="Rectangle-553" stroke="#E0E5EE" fill="#F7F9FB" x="12.2766658" y="12.2766658" width="274.471171" height="56.1219008"></rect>
                    <g id="Component---Top-Bar-Copy-12">
                        <rect id="Background" stroke="#E1E6EF" fill="#FFFFFF" x="0" y="0" width="286.747837" height="13.2185"></rect>
                        <path d="M20.7326568,3.8787883 C21.0890386,3.5075133 21.5851381,3.2771449 22.1338749,3.2771449 C22.8632079,3.2771449 23.4996452,3.68387106 23.8384527,4.28775955 C24.1330679,4.15613269 24.4590047,4.08287836 24.8019599,4.08287836 C26.1175087,4.08287836 27.1840457,5.15883604 27.1840457,6.48613775 C27.1840457,7.81346083 26.1175087,8.88939713 24.8019599,8.88939713 C24.6413326,8.88939713 24.4844254,8.87327519 24.3326922,8.84265634 C24.0343355,9.37493691 23.4655229,9.73460154 22.8128582,9.73460154 C22.5396657,9.73460154 22.2811826,9.67154637 22.0510278,9.55924873 C21.7485661,10.2709661 21.0436063,10.7699764 20.2222541,10.7699764 C19.3667369,10.7699764 18.6375749,10.2286727 18.3578401,9.46944482 C18.2354829,9.49529552 18.1087214,9.50891578 17.9787529,9.50891578 C16.9601924,9.50891578 16.1345215,8.67455198 16.1345215,7.64529233 C16.1345215,6.95549144 16.5054203,6.35324935 17.0567227,6.03100301 C16.9431954,5.76975917 16.8801888,5.48157417 16.8801888,5.17861428 C16.8801888,3.99482777 17.8410021,3.03518753 19.0262618,3.03518753 C19.7221352,3.03518753 20.3405278,3.36605077 20.7326568,3.8787883" id="Fill-1-Copy" fill="#1AA2DD"></path>
                    </g>
                    <g id="Component---Left-Bar---Expanded-Copy-16" transform="translate(0.000000, 0.224042)" fill="#16325C">
                        <rect id="BG" x="0" y="0" width="12.7692396" height="274.149638"></rect>
                    </g>
                    <g id="Group-19-Copy-7" transform="translate(200.499464, 79.682934)" stroke="#E1E6EF" fill="#FFFFFF">
                        <rect id="Rectangle-827" x="0" y="0" width="80.6478292" height="82" rx="2"></rect>
                        <rect id="Rectangle-827-Copy" x="0" y="88" width="80.6478292" height="71" rx="2"></rect>
                        <rect id="Rectangle-827-Copy-2" x="0" y="166" width="80.6478292" height="29" rx="2"></rect>
                    </g>
                    <path d="M195.111296,67.9433232 L195.111296,274.032726" id="Line-Copy-2" stroke="#E1E6EF" stroke-linecap="square"></path>
                    <g id="Wide---With-Pic-Copy" transform="translate(18.481794, 78.608015)">
                        <rect id="Rectangle-315-Copy" fill="#F7F9FB" x="23" y="1.72845996" width="147" height="9.47745849" rx="5"></rect>
                        <g id="Group-Copy-11" transform="translate(0.000000, 0.728460)">
                            <path d="M3.99919833,0.271540044 C1.79050208,0.271540044 0,2.06209062 0,4.26156423 L0,30.4807992 C0,32.6844287 1.79686215,34.4708234 3.99919833,34.4708234 L166.25733,34.4708234 C168.466026,34.4708234 170.256528,32.6802728 170.256528,30.4807992 L170.256528,4.26156423 C170.256528,2.05793472 168.459666,0.271540044 166.25733,0.271540044 L3.99919833,0.271540044 Z" id="Rectangle-19" stroke="#E0E5EE"></path>
                            <path d="M145.641811,18.7136638 C144.542074,18.7136638 143.650561,19.6042284 143.650561,20.7069113 L143.650561,25.0420872 C143.650561,26.1429274 144.545274,27.0353347 145.641811,27.0353347 L163.446776,27.0353347 C164.546513,27.0353347 165.438026,26.1447701 165.438026,25.0420872 L165.438026,20.7069113 C165.438026,19.6060711 164.543313,18.7136638 163.446776,18.7136638 L145.641811,18.7136638 Z" id="Rectangle-827-Copy" fill="#D3DCE7"></path>
                            <rect id="Rectangle-224-Copy-8" fill="#B8C4D2" x="52.7407166" y="5.11794488" width="10.4930232" height="1.61810267" rx="4"></rect>
                            <rect id="Rectangle-224-Copy-5" fill="#D3DCE7" x="5.7139556" y="22.4121842" width="75.7849943" height="1.61810267" rx="4"></rect>
                            <rect id="Rectangle-224-Copy-6" fill="#B8C4D2" x="5.55193914" y="5.11794488" width="10.4930232" height="1.61810267" rx="4"></rect>
                            <rect id="Rectangle-224-Copy-7" fill="#B8C4D2" x="30.2115785" y="5.11794488" width="10.4930232" height="1.61810267" rx="4"></rect>
                            <rect id="Rectangle-224-Copy-9" fill="#B8C4D2" x="77.430183" y="5.11794488" width="10.4930232" height="1.61810267" rx="4"></rect>
                        </g>
                        <path d="M3.99919833,41.3376162 C1.79050208,41.3376162 0,43.1360814 0,45.3340835 L0,84.6940028 C0,86.9011907 1.79686215,88.69047 3.99919833,88.69047 L166.25733,88.69047 C168.466026,88.69047 170.256528,86.8920049 170.256528,84.6940028 L170.256528,45.3340835 C170.256528,43.1268956 168.459666,41.3376162 166.25733,41.3376162 L3.99919833,41.3376162 Z" id="Rectangle-19-Copy-2" stroke="#E0E5EE" fill="#FFFFFF"></path>
                        <path d="M3.99919833,94.8288029 C1.79050208,94.8288029 0,96.6108561 0,98.827439 L0,160.105638 C0,162.314024 1.79686215,164.104274 3.99919833,164.104274 L166.25733,164.104274 C168.466026,164.104274 170.256528,162.322221 170.256528,160.105638 L170.256528,98.827439 C170.256528,96.6190533 168.459666,94.8288029 166.25733,94.8288029 L3.99919833,94.8288029 Z" id="Rectangle-19-Copy-3" stroke="#E0E5EE" fill="#FFFFFF"></path>
                        <path d="M3.99919833,169.828803 C1.79050208,169.828803 0,171.627655 0,173.832133 L0,196 L170.256528,196 L170.256528,173.832133 C170.256528,171.621155 168.459666,169.828803 166.25733,169.828803 L3.99919833,169.828803 Z" id="Rectangle-19-Copy-4" stroke="#E0E5EE" fill="#FFFFFF"></path>
                    </g>
                </g>
                <rect id="Rectangle-564-Copy-2" stroke="#2ECBBE" fill-opacity="0.05" fill="#2ECBBE" sketch:type="MSShapeGroup" x="15" y="76" width="177" height="41"></rect>
            </g>
        </g>
    </g>
</svg>

<svg width="287" height="275" xmlns="http://www.w3.org/2000/svg"><g fill="none" fill-rule="evenodd"><path stroke="#E1E6EF" fill="#FFF" d="M0 11.65h286.748v262.82H0z"/><path stroke="#E0E5EE" fill="#F7F9FB" d="M12.277 12.277h274.47V68.4H12.277z"/><path stroke="#E1E6EF" fill="#FFF" d="M0 0h286.748v13.22H0z"/><path d="M20.733 3.88c.356-.372.852-.603 1.4-.603.73 0 1.367.407 1.705 1.01.295-.13.62-.204.964-.204 1.316 0 2.382 1.076 2.382 2.403S26.118 8.89 24.802 8.89c-.16 0-.318-.017-.47-.047-.298.532-.866.892-1.52.892-.272 0-.53-.063-.76-.176-.303.71-1.008 1.21-1.83 1.21-.855 0-1.584-.54-1.864-1.3-.123.024-.25.04-.38.04-1.018 0-1.843-.836-1.843-1.866 0-.69.37-1.292.922-1.614-.114-.26-.177-.548-.177-.85 0-1.185.96-2.145 2.146-2.145.696 0 1.315.33 1.707.844" fill="#1AA2DD"/><path d="M0 .224h12.77v274.15H0z" fill="#16325C"/><g transform="translate(200.5 79.683)" stroke="#E1E6EF" fill="#FFF"><rect width="80.648" height="82" rx="2"/><rect y="88" width="80.648" height="71" rx="2"/><rect y="166" width="80.648" height="29" rx="2"/></g><path d="M195.11 67.943v206.09" stroke="#E1E6EF" stroke-linecap="square"/><g transform="translate(18.482 78.608)"><rect fill="#F7F9FB" x="23" y="1.728" width="147" height="9.477" rx="5"/><g transform="translate(0 .728)"><path d="M4 .272c-2.21 0-4 1.79-4 3.99v26.22c0 2.202 1.797 3.99 4 3.99h162.257c2.21 0 4-1.792 4-3.99V4.26c0-2.204-1.797-3.99-4-3.99H4z" stroke="#E0E5EE"/><path d="M145.642 18.714c-1.1 0-1.99.89-1.99 1.993v4.335c0 1.1.893 1.993 1.99 1.993h17.805c1.1 0 1.99-.89 1.99-1.993v-4.335c0-1.1-.894-1.993-1.99-1.993h-17.805z" fill="#D3DCE7"/><rect fill="#B8C4D2" x="52.741" y="5.118" width="10.493" height="1.618" rx="4"/><rect fill="#D3DCE7" x="5.714" y="22.412" width="75.785" height="1.618" rx="4"/><rect fill="#B8C4D2" x="5.552" y="5.118" width="10.493" height="1.618" rx="4"/><rect fill="#B8C4D2" x="30.212" y="5.118" width="10.493" height="1.618" rx="4"/><rect fill="#B8C4D2" x="77.43" y="5.118" width="10.493" height="1.618" rx="4"/></g><path d="M4 41.338c-2.21 0-4 1.798-4 3.996v39.36C0 86.9 1.797 88.69 4 88.69h162.257c2.21 0 4-1.798 4-3.996v-39.36c0-2.207-1.797-3.996-4-3.996H4zM4 94.83c-2.21 0-4 1.78-4 3.997v61.28c0 2.207 1.797 3.997 4 3.997h162.257c2.21 0 4-1.782 4-3.998v-61.28c0-2.207-1.797-3.997-4-3.997H4zm0 75c-2.21 0-4 1.798-4 4.002V196h170.257v-22.168c0-2.21-1.797-4.003-4-4.003H4z" stroke="#E0E5EE" fill="#FFF"/></g><path stroke="#2ECBBE" fill-opacity=".05" fill="#2ECBBE" d="M15 76h177v41H15z"/></g></svg>
